X: 120018
Q: "Highland Schottische."
M: C
L: 1/8
K: D
uG |\
vF<uA vA>uF G<B B>G | F<A D>F E3 G |\
uA |\
vd>ve ud>uB (A<f) d>B |
[1 f>gf>e d<B d>B | A<d e>c d2-d :|\
[2 f>ed>B A<F d>B | A<F G>E D2-D |]


